X: 768
T: Airaidh Nam Badan
R: jig
M: 6/8
K: Gmajor
|dBG GB/c/d|ded dBG|B2 G ABd|e3 gfe|
dBG GA/B/c|ded dBG|B2 G ABd|e3 d3:|
|:deg a3|b2g ged|e3 deg|a3e ega|
bgg aee|gdd efg|B2G ABd|1 e3 g3:|2 e3 d3:|

